web-app/packages/lib/src/assets/mm-logo.svg

<svg width="129" height="24" viewBox="0 0 129 24" fill="none" xmlns="http://www.w3.org/2000/svg">
<g id="Logotype">
<path id="Vector" d="M79.875 7.125H83.1794V8.37942C83.9885 7.27592 84.9878 6.9375 86.2773 6.9375C87.4833 6.9375 88.3085 7.25932 88.9978 8.37942C89.8756 7.27592 90.8912 6.9375 92.2334 6.9375C94.3843 6.9375 95.625 7.94209 95.625 9.97198V16.5H92.0446V11.3375C92.0446 10.1988 91.7001 9.67292 90.8223 9.67292C89.9444 9.67292 89.5309 10.2155 89.5309 11.3726V16.5H85.9671V11.4611C85.9671 10.2174 85.6226 9.67478 84.6939 9.67478C83.885 9.67478 83.4552 10.2358 83.4552 11.3208V16.5H79.875V7.01204V7.125Z" fill="#12181F"/>
<path id="Vector_2" d="M103.351 15.3014C102.414 16.1246 101.358 16.5 100.007 16.5C97.9111 16.5 96.75 15.4385 96.75 13.6045C96.75 11.5826 98.0315 11.0176 100.752 10.6746C102.518 10.4525 103.282 10.5373 103.282 9.69794C103.282 9.1673 102.849 8.94338 101.965 8.94338C101.202 8.94338 100.804 9.23395 100.735 9.85139H97.1662C97.2009 7.81148 98.8639 6.9375 102.088 6.9375C103.769 6.9375 105.05 7.10924 105.675 7.52084C106.646 8.17252 106.852 8.85676 106.852 10.0735V15.1462C106.852 15.471 106.991 15.7454 107.25 15.9171V16.3125H103.577L103.353 15.2996L103.351 15.3014ZM100.474 13.5016C100.474 14.0161 100.837 14.3248 101.513 14.3248C102.743 14.3248 103.263 13.776 103.263 12.5772C103.263 12.4238 103.263 12.2687 103.245 12.1152C101.547 12.7488 100.472 12.6297 100.472 13.5034L100.474 13.5016Z" fill="#12181F"/>
<path id="Vector_3" d="M108.564 7.125H111.773V8.16921C112.494 7.18233 113.42 6.9375 114.725 6.9375C117.041 6.9375 118.688 8.65442 118.688 11.6151C118.688 14.5757 117.091 16.3125 114.654 16.3125C113.539 16.3125 112.717 16.1355 112.08 15.3218V19.875H108.562V7.125H108.564ZM113.61 9.48626C112.529 9.48626 112.082 10.1612 112.082 11.6151C112.082 13.0689 112.579 13.6928 113.575 13.6928C114.571 13.6928 115.068 12.9997 115.068 11.6151C115.068 10.2306 114.606 9.48626 113.61 9.48626Z" fill="#12181F"/>
<path id="Vector_4" d="M122.802 13.3162C122.802 14.0874 123.2 14.4648 123.998 14.4648C124.795 14.4648 125.193 14.1903 125.193 13.7099C125.193 13.0581 124.673 12.9894 123.651 12.7672C120.809 12.1677 119.493 11.6711 119.493 9.74954C119.493 7.82813 121.035 6.9375 124.014 6.9375C126.768 6.9375 128.276 7.727 128.5 9.61238H125.209C125.158 9.08136 124.707 8.7202 124.049 8.7202C123.39 8.7202 123.061 8.96037 123.061 9.35404C123.061 10.0061 123.667 10.0061 124.812 10.2626C127.549 10.8801 128.812 11.3767 128.812 13.347C128.812 15.4202 127.166 16.5 123.945 16.5C120.964 16.5 119.405 15.4381 119.25 13.3126H122.802V13.3162Z" fill="#12181F"/>
<path id="Vector_5" d="M38.9528 10.6779C38.9528 9.05089 38.6545 8.28259 37.2649 8.28259C35.788 8.28259 34.9079 9.22778 34.9079 10.9064V16.4981H33.3421V10.6798C33.3421 9.05275 33.0438 8.28443 31.6541 8.28443C30.194 8.28443 29.2972 9.24622 29.2972 10.9083V16.5H27.75V7.125H29.2267V8.45948C29.9123 7.42763 30.8278 6.9375 32.0932 6.9375C33.2533 6.9375 34.0278 7.39262 34.6077 8.37103C35.399 7.39078 36.3143 6.9375 37.5632 6.9375C38.8119 6.9375 39.6737 7.39262 40.1314 8.17941C40.4834 8.80957 40.5 9.57785 40.5 10.5582V16.5H38.9528V10.6817V10.6779Z" fill="#12181F"/>
<path id="Vector_6" d="M50.1227 13.3077C49.7755 15.2991 48.182 16.5 45.9288 16.5C43.2917 16.5 41.625 14.7312 41.625 11.8137C41.625 8.70642 43.2917 6.9375 45.9288 6.9375C48.566 6.9375 50.25 8.56895 50.25 11.4863C50.25 11.7088 50.25 11.933 50.2327 12.1557H43.311C43.3476 14.0619 44.3739 15.1255 46.0754 15.1255C47.393 15.1255 48.2727 14.4726 48.5292 13.3059H50.1227V13.3077ZM48.566 10.904C48.5484 9.20376 47.6129 8.27776 45.9847 8.27776C44.3565 8.27776 43.4576 9.18749 43.311 10.904H48.566Z" fill="#12181F"/>
<path id="Vector_7" d="M51.5625 7.125H53.0749L53.0749 8.80072C53.5736 7.54112 54.4264 6.9375 55.6539 6.9375C55.7964 6.9375 55.9201 6.9375 56.0625 6.95433V8.60448C55.9388 8.58767 55.8132 8.58767 55.6895 8.58767C54.0178 8.58767 53.1274 9.51081 53.1274 11.2489V16.5H51.5625L51.5625 7.125Z" fill="#12181F"/>
<path id="Vector_8" d="M60.7057 16.4441C58.2747 16.4441 56.625 14.567 56.625 11.6647C56.625 8.7626 58.2564 6.9375 60.7221 6.9375C62.0939 6.9375 62.9096 7.51831 63.5863 8.35442V7.125H65.0625V15.9676C65.0625 18.681 63.8461 19.875 60.8264 19.875C58.379 19.875 56.9889 18.868 56.9889 17.2642V17.1958H58.4815V17.23C58.4815 18.1524 59.2808 18.6126 60.8775 18.6126C62.8401 18.6126 63.5863 17.9132 63.5863 16.2913V15.0633C62.8749 15.9856 61.92 16.4459 60.7038 16.4459L60.7057 16.4441ZM58.2235 11.6989C58.2235 13.8656 59.2478 15.0956 60.9141 15.0956C62.7724 15.0956 63.6395 14.0202 63.6395 11.751C63.6395 9.4818 62.7011 8.28609 60.8958 8.28609C59.1948 8.28609 58.2217 9.47998 58.2217 11.6989H58.2235Z" fill="#12181F"/>
<path id="Vector_9" d="M67.1667 3.75H68.7344V5.51078H67.1667V3.75ZM67.1667 7.125H68.7344V16.5H67.1667V7.125Z" fill="#12181F"/>
<path id="Vector_10" d="M76.7883 10.7411C76.7883 9.10275 76.4147 8.34583 74.9165 8.34583C73.1874 8.34583 72.1548 9.34968 72.1548 11.1641V16.5H70.5872V7.125H72.0834V8.54064C72.7968 7.48492 73.7769 6.9375 75.078 6.9375C76.4861 6.9375 77.4474 7.39586 77.9655 8.22337C78.3579 8.82262 78.3748 9.5445 78.3748 10.4424V16.5H76.7883V10.743V10.7411Z" fill="#12181F"/>
<g id="Symbol">
<path id="Vector_11" d="M12 20.0006H19.9988V4.00125H12V0H24V24H12V20.0006Z" fill="#73D19C"/>
<path id="Vector_12" d="M5.52612 12C5.52612 15.576 8.42403 18.4719 11.9982 18.4719V5.52783C8.42215 5.52783 5.52612 8.42574 5.52612 12Z" fill="#73D19C"/>
<path id="Vector_13" d="M12 20.0006H3.99938V4.00125H12V0H0V24H12V20.0006Z" fill="#12181F"/>
<path id="Vector_14" d="M18.4721 12C18.4721 15.576 15.5741 18.4719 12 18.4719V5.52783C15.576 5.52783 18.4721 8.42574 18.4721 12Z" fill="#12181F"/>
</g>
</g>
</svg>

<svg xmlns="http://www.w3.org/2000/svg" width="129" height="24" fill="none" xmlns:v="https://vecta.io/nano"><path d="M79.875 7.125h3.304v1.254c.809-1.103 1.808-1.442 3.098-1.442 1.206 0 2.031.322 2.721 1.442.878-1.103 1.893-1.442 3.236-1.442 2.151 0 3.392 1.005 3.392 3.034V16.5h-3.58v-5.162c0-1.139-.344-1.665-1.222-1.665s-1.291.543-1.291 1.7V16.5h-3.564v-5.039c0-1.244-.344-1.786-1.273-1.786-.809 0-1.239.561-1.239 1.646V16.5h-3.58V7.012v.113zm23.476 8.176c-.937.823-1.993 1.199-3.344 1.199-2.096 0-3.257-1.062-3.257-2.895 0-2.022 1.281-2.587 4.002-2.93 1.766-.222 2.53-.137 2.53-.977 0-.531-.433-.755-1.317-.755-.763 0-1.161.291-1.23.908h-3.569c.035-2.04 1.698-2.914 4.922-2.914 1.681 0 2.962.172 3.587.583.971.652 1.177 1.336 1.177 2.553v5.073a.89.89 0 0 0 .398.771v.395h-3.673l-.224-1.013-.002.002zm-2.877-1.8c0 .515.363.823 1.039.823 1.23 0 1.75-.549 1.75-1.748l-.018-.462c-1.698.634-2.773.515-2.773 1.388l.002-.002zm8.09-6.376h3.209v1.044c.721-.987 1.647-1.232 2.952-1.232 2.316 0 3.963 1.717 3.963 4.678s-1.597 4.697-4.034 4.697c-1.115 0-1.937-.177-2.574-.991v4.553h-3.518V7.125h.002zm5.046 2.361c-1.081 0-1.528.675-1.528 2.129s.497 2.078 1.493 2.078 1.493-.693 1.493-2.078-.462-2.129-1.458-2.129zm9.192 3.83c0 .771.398 1.149 1.196 1.149s1.195-.274 1.195-.755c0-.652-.52-.72-1.542-.943-2.842-.6-4.158-1.096-4.158-3.018s1.542-2.812 4.521-2.812c2.754 0 4.262.79 4.486 2.675h-3.291c-.051-.531-.502-.892-1.16-.892s-.988.24-.988.634c0 .652.606.652 1.751.909 2.737.617 4 1.114 4 3.084 0 2.073-1.646 3.153-4.867 3.153-2.981 0-4.54-1.062-4.695-3.187h3.552v.004zm-83.849-2.638c0-1.627-.298-2.395-1.688-2.395-1.477 0-2.357.945-2.357 2.624v5.592h-1.566V10.68c0-1.627-.298-2.395-1.688-2.395-1.46 0-2.357.962-2.357 2.624V16.5H27.75V7.125h1.477v1.334c.686-1.032 1.601-1.522 2.867-1.522 1.16 0 1.935.455 2.514 1.434.791-.98 1.707-1.434 2.956-1.434s2.11.455 2.568 1.242c.352.63.369 1.398.369 2.379V16.5h-1.547v-5.818-.004zm11.17 2.63c-.347 1.991-1.941 3.192-4.194 3.192-2.637 0-4.304-1.769-4.304-4.686 0-3.107 1.667-4.876 4.304-4.876s4.321 1.631 4.321 4.549l-.017.669h-6.922c.037 1.906 1.063 2.97 2.764 2.97 1.318 0 2.197-.653 2.454-1.82h1.593v.002zm-1.557-2.404c-.018-1.7-.953-2.626-2.581-2.626s-2.527.91-2.674 2.626h5.255zm2.997-3.779h1.512v1.676c.499-1.26 1.352-1.863 2.579-1.863l.409.017v1.65c-.124-.017-.249-.017-.373-.017-1.672 0-2.562.923-2.562 2.661V16.5h-1.565V7.125zm9.143 9.319c-2.431 0-4.081-1.877-4.081-4.779s1.631-4.727 4.097-4.727c1.372 0 2.188.581 2.864 1.417v-1.23h1.476v8.843c0 2.713-1.216 3.907-4.236 3.907-2.447 0-3.837-1.007-3.837-2.611v-.068h1.493v.034c0 .922.799 1.383 2.396 1.383 1.963 0 2.709-.699 2.709-2.321v-1.228c-.711.922-1.666 1.383-2.883 1.383l.002-.002zm-2.482-4.745c0 2.167 1.024 3.397 2.691 3.397 1.858 0 2.725-1.075 2.725-3.345s-.938-3.465-2.744-3.465c-1.701 0-2.674 1.194-2.674 3.413h.002zm8.943-7.949h1.568v1.761h-1.568V3.75zm0 3.375h1.568V16.5h-1.568V7.125zm9.621 3.616c0-1.638-.374-2.395-1.872-2.395-1.729 0-2.762 1.004-2.762 2.818V16.5h-1.568V7.125h1.496v1.416c.713-1.056 1.694-1.603 2.995-1.603 1.408 0 2.369.458 2.888 1.286.392.599.409 1.321.409 2.219V16.5h-1.586v-5.757-.002z" fill="#12181f"/><path d="M12 20.001h7.999v-16H12V0h12v24H12v-3.999zM5.526 12c0 3.576 2.898 6.472 6.472 6.472V5.528c-3.576 0-6.472 2.898-6.472 6.472z" fill="#73d19c"/><path d="M12 20.001H3.999v-16H12V0H0v24h12v-3.999zM18.472 12c0 3.576-2.898 6.472-6.472 6.472V5.528c3.576 0 6.472 2.898 6.472 6.472z" fill="#12181f"/></svg>
